X:1
T:Good News from the Hills
T:Good News from the Hills
T:Charlotte Sainton-Dolby
T:Elizabeth Harcourt Mitchell, 1893
T:Public Domain Courtesy of the Cyber Hymnal™
T:Public Domain Courtesy of the Cyber Hymnal™
C:Charlotte Sainton-Dolby
Z:Public Domain
Z:Courtesy of the Cyber Hymnal™
%%score ( 1 2 ) ( 3 4 )
L:1/8
Q:1/4=100
M:2/4
K:D
V:1 treble 
V:2 treble 
V:3 bass 
V:4 bass 
V:1
 [FA][FA] | [FA]2 [DF]>[FA] | [GB]2 [Ac]>[GB] | ([FA]4 | [DF]2) [FA][FA] | [GB]2 [FA]>[GB] | %6
w: 1.~Go- od|news from the|hills of Ju-|dea,|* Go- od|news from the|
w: 2.~Is He|come to the|cas- tle so|grand,|* To be|feast- ed and|
w: 3.~Is He|come in His|grand- eur and|pride,|* T- o|ride through the|
w: 4.~Have they|dressed Him in|pur- ple and|gold?|* Have they|laid Him with-|
 [Bd]2 [Ac]>[GB] | [FA]4- | [FA]2 [FA][FA] | [FA]2 [DF]>[FA] | [GB]2 [Ac]>[GB] | [F-A]4 | %12
w: mount- ains of|light;|* Th- e|King in His|beau- ty is|here,|
w: hon- ored to-|day?|* Is He|come to the|lords of the|land?|
w: streets of the|town,|* With the|princ- es and|priests at His|side,|
w: in a soft|bed,|* Like the|kings and the|princ- es of|old,|
 [Fd]2 [Fd][Fd] | [Ec]2 [DB]>[CA] | [DB]2 [E^G]>[DG] | (z2 [Ee]>[Ee] x2 | A[Aa]) dc | %17
w: * H- e|came to His|peo- ple last||* * night! ~|
w: * Is He|come to the|bright and the||* * gay? He|
w: * And the|sol- diers de-|fend- ing His||* * crown? ~|
w: * With a|guard to watch|o- ver His||* * head? ~|
[M:4/4] (AA)[GB][FA] ([EG][DF])[CE][B,D] | [A,C]2 [A,DA]>[A,CA] [A,DF]2 dc | %19
w: ~ * ~ ~ ~ * ~ ~|~ ~ ~ ~ ~ ~|
w: is * come! He is * come! Ring|the bells! Ring the bells! He|
w: ~ * ~ ~ ~ * ~ ~|~ ~ ~ ~ ~ ~|
w: ~ * ~ ~ ~ * ~ ~|~ ~ ~ ~ ~ ~|
 (BA)[GB][FA] ([EG][DF])[CE][B,D] | [A,C]2 [DA]>[CA] [DF]2 DE | F2 [DF][DG] [DA]2 [DB][Gc] | %22
w: ~ * ~ ~ ~ * ~ ~|~ ~ ~ ~ ~ Je-|sus Christ is come down, Go,|
w: is * come! He is * come! Ring|the bells! Ring the bells! Je-|sus Christ is come down, To|
w: ~ * ~ ~ ~ * ~ ~|~ ~ ~ ~ ~ In|a cave cold and bare You|
w: ~ * ~ ~ ~ * ~ ~|~ ~ ~ ~ ~ He|is laid in the grass With|
 [Fd]2 [Ace][Ace] !fermata![Fdf]2 dc | (BA)[GB][FA] ([EG][DF])[CE][B,D] | %24
w: pre- pare Him a crown! *||
w: a poor lit- tle town; He|is * come! He is * come! Ring|
w: will find the King there; *||
w: the ox and the ass; *||
 [A,C]2 [DA]>[CA] [DF]2 dc | (BA)"^rall."[GB][FA] ([EG][DF]) [CE]>[B,D] | %26
w: ||
w: the bells! Ring the bells! He|is * come! He is * come! Ring|
w: ||
w: ||
 [A,C]2 [Ec]>[Ec] [Fd] z |] %27
w: |
w: the bells! Ring the|
w: |
w: |
V:2
 x2 | x4 | x4 | x4 | x4 | x4 | x4 | x4 | x4 | x4 | x4 | x4 | x4 | x4 | x4 | [DA]4 x2 | x4 | %17
[M:4/4] x8 | x8 | x8 | x6 DE | F2 x6 | x8 | x8 | x8 | x8 | x6 |] %27
V:3
 z2 | [D,A,]2 [D,A,]2 | [D,G,]2 B,>C | ([D,-D]4 | [D,A,]2) [D,A,]2 | [D,G,]2 [D,A,]2 | %6
 [D,G,]2 B,>C | [D,D]4- | [D,D]2 [D,D]2 | [D,D]2 [D,A,]2 | [D,G,]2 B,>C | [D,-D]4 | %12
 [D,A,]2 [D,A,]2 | [E,A,]2 E,2 | [E,^G,]2 [E,B,]2 | (z2 x4 | =A,)A,, z2 |[M:4/4] z8 | %18
 (A,G,F,E, D,2) z2 | z8 | (A,G,F,E, D,2) z2 | z2 [B,,D,][B,,D,] [F,,D,]2 [G,,G,][E,G,] | %22
 [D,A,]2 [A,,A,][A,,A,] !fermata![D,A,]2 z2 | z8 | (A,G,F,E, D,2) z2 | z8 | %26
 z2 [A,,A,]>[A,,A,] [D,A,] z |] %27
V:4
 x2 | x4 | x2 D,2 | x4 | x4 | x4 | x2 D,2 | x4 | x4 | x4 | x2 D,2 | x4 | x4 | x2 E,2 | x4 | %15
 A,4- E,>E, | (=A,A,,) x2 |[M:4/4] x8 | x8 | x8 | x8 | x8 | x8 | x8 | x8 | x8 | x6 |] %27

